vms/client/nx_vms_client_desktop/external_resources/skin/48x48/Outline/paid.svg

<svg width="48" height="48" viewBox="0 0 48 48" fill="none" xmlns="http://www.w3.org/2000/svg">
<path fill-rule="evenodd" clip-rule="evenodd" d="M6 11V28H42V11H6ZM6 37V32H42V37H6ZM4 7C2.89543 7 2 7.89543 2 9V39C2 40.1046 2.89543 41 4 41H44C45.1046 41 46 40.1046 46 39V9C46 7.89543 45.1046 7 44 7H4ZM11 16C10.4477 16 10 16.4477 10 17V22C10 22.5523 10.4477 23 11 23H20C20.5523 23 21 22.5523 21 22V17C21 16.4477 20.5523 16 20 16H11Z" class="Primary" fill="#EF5350"/>
</svg>

<svg xmlns="http://www.w3.org/2000/svg" width="48" height="48" fill="none" viewBox="0 0 48 48">
  <g class="48x48/Outline/paid">
    <path fill="#EF5350" fill-rule="evenodd" d="M6 11v17h36V11H6Zm0 26v-5h36v5H6ZM4 7a2 2 0 0 0-2 2v30a2 2 0 0 0 2 2h40a2 2 0 0 0 2-2V9a2 2 0 0 0-2-2H4Zm7 9a1 1 0 0 0-1 1v5a1 1 0 0 0 1 1h9a1 1 0 0 0 1-1v-5a1 1 0 0 0-1-1h-9Z" class="Primary" clip-rule="evenodd"/>
  </g>
</svg>
